rospo-icon-theme-classic-common/16x16/apps/pingus-icon.svg

<svg height="16" viewBox="0 0 16 16" width="16" xmlns="http://www.w3.org/2000/svg"><circle cx="8" cy="8" fill="#4f4f4f" r="8"/><path d="m5 7a3 3.0397941 0 0 0 -2.8916016 2.2428504c-.0681062.1605108-.1083984.3476172-.1083984.5723396 0 .03442.00509.06775.00586.102016a3 3.0397941 0 0 0 -.00586.123019 3 3.0397941 0 0 0  .2087402 1.113174c.6837883 2.213649 3.0140623 3.846601 5.7912598 3.846601 2.793104 0 5.133622-1.651846 5.802246-3.884857a3 3.0397941 0 0 0  .197754-1.074918 3 3.0397941 0 0 0 -.0052-.141772c.000515-.028.0052-.05516.0052-.08326 0-.2178068-.03839-.3999656-.102539-.5573372a3 3.0397941 0 0 0 -2.897461-2.2578558 3 3.0397941 0 0 0 -2.9663085 2.6089076c-.0031459.001388-.0336915.0142524-.0336915.0142524s-.030544-.012864-.03369-.014252a3 3.0397941 0 0 0 -2.96631-2.608908z" fill="#fff"/><circle cx="6" cy="10" fill="#3f3f3f" r="1"/><circle cx="10" cy="10" fill="#3f3f3f" r="1"/><path d="m20.779291 31.72315h4 4l-2 3.464101-2 3.464102-2-3.464102z" fill="#e31b1b" opacity=".767" transform="matrix(.43750001 0 0 .36084392 -2.84094 .552894)"/></svg>

<svg xmlns="http://www.w3.org/2000/svg" width="16" height="16" version="1.1" viewBox="0 0 16 16">
 <circle style="fill:#4f4f4f" cx="8" cy="8" r="8"/>
 <path style="fill:#ffffff" d="M 5,7 A 3,3.0397941 0 0 0 2.1083984,9.2428504 C 2.0402922,9.4033612 2,9.5904676 2,9.81519 2,9.84961 2.00509,9.88294 2.00586,9.917206 A 3,3.0397941 0 0 0 2,10.040225 3,3.0397941 0 0 0 2.2087402,11.153399 C 2.8925285,13.367048 5.2228025,15 8,15 c 2.793104,0 5.133622,-1.651846 5.802246,-3.884857 A 3,3.0397941 0 0 0 14,10.040225 3,3.0397941 0 0 0 13.9948,9.898453 C 13.995315,9.870453 14,9.843293 14,9.815193 14,9.5973862 13.96161,9.4152274 13.897461,9.2578558 A 3,3.0397941 0 0 0 11,7 3,3.0397941 0 0 0 8.0336915,9.6089076 C 8.0305456,9.6102956 8,9.62316 8,9.62316 8,9.62316 7.969456,9.610296 7.96631,9.608908 A 3,3.0397941 0 0 0 5,7 Z"/>
 <circle style="fill:#3f3f3f" cx="6" cy="10" r="1"/>
 <circle cx="10" cy="10" r="1" style="fill:#3f3f3f"/>
 <path style="opacity:0.76700003;fill:#e31b1b" d="m 20.779291,31.72315 4,0 4,0 -2,3.464101 -2,3.464102 -2,-3.464102 z" transform="matrix(0.43750001,0,0,0.36084392,-2.8409401,0.55289431)"/>
</svg>
